launcher/android/assets/skins/day/svg/multiQuestion.svg

<svg enable-background="new 0 0 220.00 220.00" height="220" viewBox="0 0 220 220" width="220" xmlns="http://www.w3.org/2000/svg" xmlns:xlink="http://www.w3.org/1999/xlink"><linearGradient id="a" gradientTransform="matrix(-.085461388019 -.996341483206 .996341483206 -.085461388019 -.43424058401 1.538323978061)" gradientUnits="objectBoundingBox" x1=".488891" x2="1.48431" y1=".968456" y2=".968456"><stop offset="0" stop-color="#07620c"/><stop offset="1" stop-color="#389d3e"/></linearGradient><path d="m104.236 62.0013-.251-10.75 3.875-9.3748 10.376-8.3752 14-3.9998 10 1.75 8.5 4 7.5 4.9998 7.5 7.25 2.75 9.5-2.5 8.5002-6.001 4.7498-8.499 1.7502-3.751 3.25-.749 9 8.25 8 41.75 18.2495-9.459 19.292-7.583-3.083-6.333-3.5-6.167-4.667-3.667-4.666-7.327-3.061-6.34-.773-6.166 3-5.834 6.333-5.249 8.084-2.584 7.083.25 7.584 2.084 6.583 3.333 5.5 6.5 5.333 6.5.333 7.333-.5 13.583-.25-1.625 11.006-18.499 38.37-48.203-23.269 3-18.25 10.453-5.231 2.999-7.751-.749-10.75-3.751-8-8.499-6.499-10.0005-3.501-10.75.5-7 2-8.75 5.25-4.5 4.5-1 6 1.25 7.25 3.75 7.5-2.5 5.5-12.25 1.75-29.75-14 39.25-95.9994 39.2505 17.4999 3.749-1z" fill="url(#a)" stroke="#00c800" stroke-linejoin="round" stroke-width="4"/></svg>

﻿<?xml version="1.0" encoding="utf-8"?>
<!DOCTYPE svg PUBLIC "-//W3C//DTD SVG 1.1//EN" "http://www.w3.org/Graphics/SVG/1.1/DTD/svg11.dtd">
<svg xmlns="http://www.w3.org/2000/svg" xmlns:xlink="http://www.w3.org/1999/xlink" version="1.1" baseProfile="full" width="220" height="220" viewBox="0 0 220.00 220.00" enable-background="new 0 0 220.00 220.00" xml:space="preserve">
	<linearGradient id="SVGID_Fill1_" gradientUnits="objectBoundingBox" x1="0.488891" y1="0.968456" x2="1.48431" y2="0.968456" gradientTransform="rotate(-94.902557 0.488891 0.968456)">
		<stop offset="0" stop-color="#07620C" stop-opacity="1"/>
		<stop offset="1" stop-color="#389D3E" stop-opacity="1"/>
	</linearGradient>
	<path fill="url(#SVGID_Fill1_)" stroke-width="4" stroke-linejoin="round" stroke="#00C800" stroke-opacity="1" d="M 104.236,62.0013L 103.985,51.2513L 107.86,41.8765L 118.236,33.5013L 132.236,29.5015L 142.236,31.2515L 150.736,35.2515L 158.236,40.2513L 165.736,47.5013L 168.486,57.0013L 165.986,65.5015L 159.985,70.2513L 151.486,72.0015L 147.735,75.2515L 146.986,84.2515L 155.236,92.2515L 196.986,110.501L 187.527,129.793L 179.944,126.71L 173.611,123.21L 167.444,118.543L 163.777,113.877L 156.45,110.816L 150.11,110.043L 143.944,113.043L 138.11,119.376L 132.861,127.46L 130.277,134.543L 130.527,142.127L 132.611,148.71L 135.944,154.21L 142.444,159.543L 148.944,159.876L 156.277,159.376L 169.86,159.126L 168.235,170.132L 149.736,208.502L 101.533,185.233L 104.533,166.983L 114.986,161.752L 117.985,154.001L 117.236,143.251L 113.485,135.251L 104.986,128.752L 94.9855,125.251L 84.2355,125.751L 77.2355,127.751L 68.4855,133.001L 63.9855,137.501L 62.9855,143.501L 64.2355,150.751L 67.9855,158.251L 65.4855,163.751L 53.2355,165.501L 23.4855,151.501L 62.7355,55.5016L 101.986,73.0015L 105.735,72.0015L 104.236,62.0013 Z "/>
</svg>
